img/svg/ok.svg

<?xml version="1.0" encoding="utf-8"?>
<!DOCTYPE svg PUBLIC "-//W3C//DTD SVG 1.1//EN" "http://www.w3.org/Graphics/SVG/1.1/DTD/svg11.dtd">
<svg version="1.1" baseProfile="full"
 xmlns="http://www.w3.org/2000/svg"
 xmlns:xlink="http://www.w3.org/1999/xlink"
 xmlns:ev="http://www.w3.org/2001/xml-events" 
  height="15px" 
  width="10px" 
>
<path fill="rgb( 191, 191, 191 )"
 d="M8.88000000000011,7.969 C8.69000000000005,7.597 8.16300000000001,7.287 7.46399999999994,7.825 C6.51800000000003,8.551 5,8.551 5,8.551 C5,8.551 3.48099999999999,8.551 2.53600000000006,7.825 C1.83600000000001,7.287 1.30999999999995,7.597 1.11999999999989,7.969 C0.78899999999999,8.619 1.16300000000001,8.933 2.00800000000004,9.462 C2.72900000000004,9.913 3.72000000000003,10.083 4.3610000000001,10.146 C4.3610000000001,10.146 3.82600000000002,10.667 3.82600000000002,10.667 C3.07400000000007,11.402 2.34699999999998,12.111 1.84300000000007,12.603 C1.54099999999994,12.897 1.54099999999994,13.374 1.84300000000007,13.668 C1.84300000000007,13.668 1.93399999999997,13.757 1.93399999999997,13.757 C2.08400000000006,13.904 2.28099999999995,13.977 2.47800000000007,13.978 C2.47800000000007,13.978 2.48099999999999,13.978 2.48099999999999,13.978 C2.67800000000011,13.977 2.875,13.904 3.02500000000009,13.757 C3.02500000000009,13.757 5.00900000000001,11.821 5.00900000000001,11.821 C5.76199999999994,12.556 6.48800000000006,13.265 6.99199999999996,13.757 C7.2940000000001,14.051 7.78199999999993,14.051 8.08400000000006,13.757 C8.08400000000006,13.757 8.17499999999995,13.668 8.17499999999995,13.668 C8.47600000000011,13.374 8.47600000000011,12.897 8.17499999999995,12.603 C8.17499999999995,12.603 6.19100000000003,10.667 6.19100000000003,10.667 C6.19100000000003,10.667 5.65499999999997,10.144 5.65499999999997,10.144 C6.29600000000005,10.08 7.27700000000004,9.91 7.99199999999996,9.462 C8.83699999999999,8.933 9.21100000000001,8.619 8.88000000000011,7.969 C8.88000000000011,7.969 8.88000000000011,7.969 8.88000000000011,7.969 ZM5,2.667 C5.91399999999999,2.667 6.65599999999995,3.391 6.65599999999995,4.284 C6.65599999999995,5.176 5.91399999999999,5.899 5,5.899 C4.08500000000004,5.899 3.34400000000005,5.176 3.34400000000005,4.284 C3.34400000000005,3.391 4.08500000000004,2.667 5,2.667 C5,2.667 5,2.667 5,2.667 ZM5,7.568 C6.85899999999992,7.568 8.36599999999999,6.097 8.36599999999999,4.284 C8.36599999999999,2.47 6.85899999999992,0.999 5,0.999 C3.14100000000008,0.999 1.63400000000001,2.47 1.63400000000001,4.284 C1.63400000000001,6.097 3.14100000000008,7.568 5,7.568 C5,7.568 5,7.568 5,7.568 Z "/>
</svg>

<svg baseProfile="full" xmlns="http://www.w3.org/2000/svg" height="15" width="10"><path fill="rgb( 191, 191, 191 )" d="M8.88 7.969c-.19-.372-.717-.682-1.416-.144-.946.726-2.464.726-2.464.726s-1.519 0-2.464-.726c-.7-.538-1.226-.228-1.416.144-.331.65.043.964.888 1.493.721.451 1.712.621 2.353.684l-.535.521-1.983 1.936c-.302.294-.302.771 0 1.065l.091.089c.15.147.347.22.544.221h.003c.197-.001.394-.074.544-.221l1.984-1.936 1.983 1.936c.302.294.79.294 1.092 0l.091-.089c.301-.294.301-.771 0-1.065l-1.984-1.936-.536-.523c.641-.064 1.622-.234 2.337-.682.845-.529 1.219-.843.888-1.493zm-3.88-5.302c.914 0 1.656.724 1.656 1.617 0 .892-.742 1.615-1.656 1.615-.915 0-1.656-.723-1.656-1.615 0-.893.741-1.617 1.656-1.617zm0 4.901c1.859 0 3.366-1.471 3.366-3.284 0-1.814-1.507-3.285-3.366-3.285-1.859 0-3.366 1.471-3.366 3.285 0 1.813 1.507 3.284 3.366 3.284z"/></svg>
